images/database01.svg

<svg fill="none" height="45" viewBox="0 0 45 45" width="45" xmlns="http://www.w3.org/2000/svg"><path d="m35.7715 26.543c-2.3707 0-4.7523.3257-6.5023 1.0165l-2.8866-1.7039c.0433-.2339.0726-.4727.0726-.7189 0-1.7165-1.1055-3.1662-2.6368-3.7122v-3.0016c4.1214-.2144 7.9102-1.4508 7.9102-3.921v-.7788c-.5417.3555-1.1908.6869-1.9691.9776-1.9332.722-4.5113 1.1196-7.2595 1.1196s-5.3263-.3976-7.2594-1.1196c-.7783-.2907-1.4274-.6221-1.9691-.9776v.7788c0 2.4702 3.7888 3.7067 7.9101 3.921v3.0016c-1.5312.546-2.6367 1.9957-2.6367 3.7122 0 .2463.0293.4851.0726.7189l-2.8867 1.7039c-1.75-.6908-4.1316-1.0165-6.50228-1.0165-4.59352 0-9.22852 1.2229-9.22852 3.955 0 2.7322 4.635 3.9551 9.22852 3.9551 4.59348 0 9.22848-1.2229 9.22848-3.9551 0-.46-.1319-.8771-.3724-1.2529l1.8632-1.1123c.6909.5895 1.5749.959 2.5522.959s1.8613-.3695 2.5523-.959l1.8631 1.1123c-.2405.3758-.3724.7929-.3724 1.2529 0 2.7322 4.635 3.9551 9.2285 3.9551s9.2285-1.2229 9.2285-3.9551c0-2.7321-4.635-3.955-9.2285-3.955z" fill="#fff"/><path d="m22.5 7.91016c5.0968 0 9.2285-1.77075 9.2285-3.95508s-4.1317-3.95508-9.2285-3.95508-9.2285 1.77075-9.2285 3.95508 4.1317 3.95508 9.2285 3.95508z" fill="#fff"/><path d="m16.1632 12.2306c1.6454.6145 3.8958.9529 6.3368.9529 2.4409 0 4.6914-.3384 6.3369-.9529 1.9188-.7167 2.8916-1.7267 2.8916-3.00213v-.77889c-.5417.35543-1.1909.68687-1.9691.97761-1.9331.72201-4.5112 1.11961-7.2594 1.11961s-5.3263-.3976-7.2594-1.11961c-.7783-.29065-1.4274-.62209-1.9691-.97752v.7788c0 1.27543.9728 2.28543 2.8917 3.00213z" fill="#f5bf2f"/><path d="m35.7715 37.0898c-2.7482 0-5.3263-.3976-7.2594-1.1196-.7783-.2907-1.4275-.6221-1.9691-.9776v.7788c0 1.2754.9728 2.2855 2.8917 3.0021 1.6454.6145 3.8958.953 6.3368.953 2.4409 0 4.6914-.3385 6.3369-.953 1.9187-.7166 2.8916-1.7267 2.8916-3.0021v-.7788c-.5417.3554-1.1909.6868-1.9691.9776-1.9332.722-4.5113 1.1196-7.2594 1.1196z" fill="#f5bf2f"/><path d="m35.7715 42.3633c-2.7482 0-5.3263-.3976-7.2594-1.1197-.7783-.2906-1.4275-.6221-1.9691-.9775v.7788c0 2.7322 4.635 3.9551 9.2285 3.9551s9.2285-1.2229 9.2285-3.9551v-.7788c-.5417.3554-1.1908.6869-1.9691.9775-1.9332.7221-4.5113 1.1197-7.2594 1.1197z" fill="#fff"/><path d="m9.22852 37.0898c-2.74817 0-5.32626-.3976-7.25942-1.1196-.77818-.2907-1.42743-.6221-1.9691-.9776v.7788c0 1.2754.972861 2.2855 2.89169 3.0021 1.6454.6145 3.89584.953 6.33683.953 2.44088 0 4.69138-.3385 6.33688-.953 1.9188-.7166 2.8916-1.7267 2.8916-3.0021v-.7788c-.5416.3554-1.1909.6868-1.9691.9776-1.9331.722-4.5112 1.1196-7.25938 1.1196z" fill="#f5bf2f"/><path d="m9.22852 42.3632c-2.74817 0-5.32626-.3976-7.25942-1.1196-.77818-.2907-1.42743-.6221-1.9691-.9776v.7789c0 2.7321 4.635 3.9551 9.22852 3.9551 4.59348 0 9.22848-1.223 9.22848-3.9551v-.7788c-.5416.3554-1.1908.6868-1.9691.9775-1.9331.722-4.5112 1.1196-7.25938 1.1196z" fill="#fff"/></svg>

<svg width="45" height="45" viewBox="0 0 45 45" fill="none" xmlns="http://www.w3.org/2000/svg">
<path d="M35.7715 26.543C33.4008 26.543 31.0192 26.8687 29.2692 27.5595L26.3826 25.8556C26.4259 25.6217 26.4552 25.3829 26.4552 25.1367C26.4552 23.4202 25.3497 21.9705 23.8184 21.4245V18.4229C27.9398 18.2085 31.7286 16.9721 31.7286 14.5019V13.7231C31.1869 14.0786 30.5378 14.41 29.7595 14.7007C27.8263 15.4227 25.2482 15.8203 22.5 15.8203C19.7518 15.8203 17.1737 15.4227 15.2406 14.7007C14.4623 14.41 13.8132 14.0786 13.2715 13.7231V14.5019C13.2715 16.9721 17.0603 18.2086 21.1816 18.4229V21.4245C19.6504 21.9705 18.5449 23.4202 18.5449 25.1367C18.5449 25.383 18.5742 25.6218 18.6175 25.8556L15.7308 27.5595C13.9808 26.8687 11.5992 26.543 9.22852 26.543C4.635 26.543 0 27.7659 0 30.498C0 33.2302 4.635 34.4531 9.22852 34.4531C13.822 34.4531 18.457 33.2302 18.457 30.498C18.457 30.038 18.3251 29.6209 18.0846 29.2451L19.9478 28.1328C20.6387 28.7223 21.5227 29.0918 22.5 29.0918C23.4773 29.0918 24.3613 28.7223 25.0523 28.1328L26.9154 29.2451C26.6749 29.6209 26.543 30.038 26.543 30.498C26.543 33.2302 31.178 34.4531 35.7715 34.4531C40.365 34.4531 45 33.2302 45 30.498C45 27.7659 40.365 26.543 35.7715 26.543Z" fill="white"/>
<path d="M22.5 7.91016C27.5968 7.91016 31.7285 6.13941 31.7285 3.95508C31.7285 1.77075 27.5968 0 22.5 0C17.4032 0 13.2715 1.77075 13.2715 3.95508C13.2715 6.13941 17.4032 7.91016 22.5 7.91016Z" fill="white"/>
<path d="M16.1632 12.2306C17.8086 12.8451 20.059 13.1835 22.5 13.1835C24.9409 13.1835 27.1914 12.8451 28.8369 12.2306C30.7557 11.5139 31.7285 10.5039 31.7285 9.22847V8.44958C31.1868 8.80501 30.5376 9.13645 29.7594 9.42719C27.8263 10.1492 25.2482 10.5468 22.5 10.5468C19.7518 10.5468 17.1737 10.1492 15.2406 9.42719C14.4623 9.13654 13.8132 8.8051 13.2715 8.44967V9.22847C13.2715 10.5039 14.2443 11.5139 16.1632 12.2306Z" fill="#F5BF2F"/>
<path d="M35.7715 37.0898C33.0233 37.0898 30.4452 36.6922 28.5121 35.9702C27.7338 35.6795 27.0846 35.3481 26.543 34.9926V35.7714C26.543 37.0468 27.5158 38.0569 29.4347 38.7735C31.0801 39.388 33.3305 39.7265 35.7715 39.7265C38.2124 39.7265 40.4629 39.388 42.1084 38.7735C44.0271 38.0569 45 37.0468 45 35.7714V34.9926C44.4583 35.348 43.8091 35.6794 43.0309 35.9702C41.0977 36.6922 38.5196 37.0898 35.7715 37.0898Z" fill="#F5BF2F"/>
<path d="M35.7715 42.3633C33.0233 42.3633 30.4452 41.9657 28.5121 41.2436C27.7338 40.953 27.0846 40.6215 26.543 40.2661V41.0449C26.543 43.7771 31.178 45 35.7715 45C40.365 45 45 43.7771 45 41.0449V40.2661C44.4583 40.6215 43.8092 40.953 43.0309 41.2436C41.0977 41.9657 38.5196 42.3633 35.7715 42.3633Z" fill="white"/>
<path d="M9.22852 37.0898C6.48035 37.0898 3.90226 36.6922 1.9691 35.9702C1.19092 35.6795 0.54167 35.3481 0 34.9926V35.7714C0 37.0468 0.972861 38.0569 2.89169 38.7735C4.53709 39.388 6.78753 39.7265 9.22852 39.7265C11.6694 39.7265 13.9199 39.388 15.5654 38.7735C17.4842 38.0569 18.457 37.0468 18.457 35.7714V34.9926C17.9154 35.348 17.2661 35.6794 16.4879 35.9702C14.5548 36.6922 11.9767 37.0898 9.22852 37.0898Z" fill="#F5BF2F"/>
<path d="M9.22852 42.3632C6.48035 42.3632 3.90226 41.9656 1.9691 41.2436C1.19092 40.9529 0.54167 40.6215 0 40.266V41.0449C0 43.777 4.635 45 9.22852 45C13.822 45 18.457 43.777 18.457 41.0449V40.2661C17.9154 40.6215 17.2662 40.9529 16.4879 41.2436C14.5548 41.9656 11.9767 42.3632 9.22852 42.3632Z" fill="white"/>
</svg>
